lib/brands/icons/documentum.svg

<svg xmlns="http://www.w3.org/2000/svg" fill="none" aria-hidden="true" viewBox="0 0 48 48"><g id="documentum-Icon"><g id="Group"><path id="Vector" fill="#2360A5" fill-rule="evenodd" d="M38.3681 25.8537H33.176C32.4596 25.8509 30.9142 25.6778 29.7673 25.3343C29.3835 25.2198 28.3612 24.9138 27.371 24.2918C26.4503 23.7138 25.6012 22.9168 24.7584 21.846C23.5666 20.3299 22.8338 18.8725 22.4151 16.9698C22.2173 16.0648 22.1687 15.2651 22.1128 14.1045C22.089 13.5915 21.9168 12.4766 21.9168 12.4766C21.5366 10.5233 20.4426 8.78157 18.848 7.59099C17.2535 6.40041 15.2727 5.84633 13.2919 6.03676C11.311 6.2272 9.47205 7.1485 8.13353 8.62105C6.79501 10.0936 6.05286 12.0119 6.05176 14.0019C6.05176 17.918 8.86494 21.1727 12.5786 21.8661C12.5786 21.8661 13.9151 22.0704 14.5811 22.0796C17.1341 22.1144 19.5662 22.8509 21.8032 24.6024C23.4182 25.8674 25.6772 27.792 25.9401 32.9879V38.2799C25.9401 39.2272 26.3164 40.1358 26.9862 40.8058C27.6559 41.4757 28.5644 41.8522 29.5118 41.8525H38.3672C39.3147 41.8525 40.2234 41.4761 40.8934 40.8061C41.5634 40.1361 41.9398 39.2274 41.9398 38.2799V29.4254C41.9399 28.9563 41.8476 28.4918 41.6682 28.0584C41.4887 27.625 41.2256 27.2312 40.8939 26.8995C40.5623 26.5679 40.1685 26.3048 39.7351 26.1253C39.3017 25.9459 38.8372 25.8536 38.3681 25.8537V25.8537Z" clip-rule="evenodd"/><g id="Vector_2"><path fill="black" d="M19.7863 39.6547C18.2847 41.1564 16.248 42 14.1244 42C12.0007 42 9.96407 41.1564 8.46244 39.6547C6.9608 38.1531 6.11719 36.1164 6.11719 33.9928C6.11719 31.8692 6.9608 29.8325 8.46244 28.3309C9.96407 26.8292 12.0007 25.9856 14.1244 25.9856C16.248 25.9856 18.2847 26.8292 19.7863 28.3309C21.2879 29.8325 22.1315 31.8692 22.1315 33.9928C22.1315 36.1164 21.2879 38.1531 19.7863 39.6547Z"/><path fill="black" d="M39.6016 8.44464C41.1034 9.9461 41.9473 11.9827 41.9475 14.1063C41.9478 16.2299 41.1044 18.2667 39.6029 19.7685C38.1014 21.2703 36.0649 22.1142 33.9413 22.1144C31.8176 22.1146 29.7809 21.2713 28.279 19.7698C26.7772 18.2683 25.9334 16.2318 25.9332 14.1081C25.9329 11.9845 26.7763 9.94775 28.2778 8.44594C29.7792 6.94413 31.8158 6.10028 33.9394 6.10004C36.0631 6.09979 38.0998 6.94317 39.6016 8.44464Z"/></g></g></g></svg>

<svg xmlns="http://www.w3.org/2000/svg" fill="none" aria-hidden="true" viewBox="0 0 48 48"><path fill="#2360A5" fill-rule="evenodd" d="M38.368 25.854h-5.192c-.716-.003-2.262-.176-3.409-.52-.383-.114-1.406-.42-2.396-1.042-.92-.578-1.77-1.375-2.613-2.446-1.191-1.516-1.924-2.974-2.343-4.876-.198-.905-.246-1.705-.302-2.865-.024-.514-.196-1.628-.196-1.628a8.006 8.006 0 0 0-15.865 1.525c0 3.916 2.813 7.17 6.527 7.864 0 0 1.336.204 2.002.214 2.553.034 4.985.77 7.222 2.522 1.615 1.265 3.874 3.19 4.137 8.386v5.292a3.573 3.573 0 0 0 3.572 3.572h8.855a3.573 3.573 0 0 0 3.573-3.572v-8.855a3.572 3.572 0 0 0-3.572-3.571Z" clip-rule="evenodd"/><path fill="#000" d="M19.786 39.655A8.007 8.007 0 1 1 8.463 28.332a8.007 8.007 0 0 1 11.323 11.323Zm19.816-31.21A8.007 8.007 0 1 1 28.279 19.77 8.007 8.007 0 0 1 39.602 8.445Z"/></svg>
